Costumes/d-block.svg

<?xml version="1.0" encoding="UTF-8" standalone="no"?>
<svg
   version="1.1"
   width="60.53566"
   height="79.599541"
   id="svg6"
   sodipodi:docname="d-block.svg"
   xmlns:inkscape="http://www.inkscape.org/namespaces/inkscape"
   xmlns:sodipodi="http://sodipodi.sourceforge.net/DTD/sodipodi-0.dtd"
   xmlns="http://www.w3.org/2000/svg"
   xmlns:svg="http://www.w3.org/2000/svg">
  <defs
     id="defs10" />
  <sodipodi:namedview
     id="namedview8"
     pagecolor="#ffffff"
     bordercolor="#000000"
     borderopacity="0.25"
     inkscape:showpageshadow="2"
     inkscape:pageopacity="0.0"
     inkscape:pagecheckerboard="0"
     inkscape:deskcolor="#d1d1d1" />
  <!-- Exported by Scratch - http://scratch.mit.edu/ -->
  <g
     id="ID0.1528324242681265"
     transform="translate(-0.42412275,-0.00102084)">
    <path
       id="ID0.6661668973974884"
       fill="#ff9400"
       d="m 287,360 c 18.31,-2.355 27.897,9.202 41,15 15.546,27.597 -12.956,46.22 -39,48 -1.517,-21.079 -3.472,-40.116 -2,-63 z m 13,54 c 11.15,-4.389 22.964,-8.217 24,-20 1.333,-15.153 -13.793,-20.223 -27,-25 -0.162,13.946 3.17,27.25 3,45 z"
       transform="matrix(1.0257732,0,0,1.0257732,-283.7,-366.2)" />
    <path
       id="ID0.4985432797111571"
       d="m 297,369 c 13.207,4.777 28.333,9.847 27,25 -1.036,11.783 -12.85,15.611 -24,20 0.17,-17.75 -3.162,-31.054 -3,-45 z m 7,40 c 21.896,-4.725 13.653,-25.317 -3,-28 1.107,7.823 -0.629,20.241 3,28 z"
       transform="matrix(1.0257732,0,0,1.0257732,-283.7,-366.2)" />
    <path
       id="ID0.07445274945348501"
       d="m 285,357 c 5.333,0 10.667,0 16,0 0,0.333 0,0.667 0,1 16.189,4.144 28.49,12.176 35,26 0,4 0,8 0,12 -0.333,0 -0.667,0 -1,0 -5.758,23.987 -28.838,34.59 -52,38 -0.667,0 -1.428,1.349 -2,0 -3.461,-32.021 -2.653,-31.691 -3,-39 -0.21,-8.798 0.098,-18.441 -1,-27 -0.033,-1.546 0,-2 0,-3 2.656,-0.01 5.711,0.378 7,-1 -0.946,-2.597 -1.825,-5.873 1,-7 z m 4,66 c 26.044,-1.78 54.546,-20.403 39,-48 -13.103,-5.798 -22.69,-17.355 -41,-15 -1.472,22.884 0.483,41.921 2,63 z"
       transform="matrix(1.0257732,0,0,1.0257732,-283.7,-366.2)" />
  </g>
</svg>

<svg version="1.1" width="61" height="80" xmlns="http://www.w3.org/2000/svg" xmlns:xlink="http://www.w3.org/1999/xlink">
  <!-- Exported by Scratch - http://scratch.mit.edu/ -->
  <g id="ID0.1528324242681265">
    <path id="ID0.6661668973974884" fill="#FF9400" d="M 287 360 C 305.310 357.645 314.897 369.202 328 375 C 343.546 402.597 315.044 421.220 289 423 C 287.483 401.921 285.528 382.884 287 360 Z M 300 414 C 311.150 409.611 322.964 405.783 324 394 C 325.333 378.847 310.207 373.777 297 369 C 296.838 382.946 300.170 396.250 300 414 Z " transform="matrix(1.0257731676101685, 0, 0, 1.0257731676101685, -283.7, -366.2)"/>
    <path id="ID0.4985432797111571" d="M 297 369 C 310.207 373.777 325.333 378.847 324 394 C 322.964 405.783 311.150 409.611 300 414 C 300.170 396.250 296.838 382.946 297 369 Z M 304 409 C 325.896 404.275 317.653 383.683 301 381 C 302.107 388.823 300.371 401.241 304 409 Z " transform="matrix(1.0257731676101685, 0, 0, 1.0257731676101685, -283.7, -366.2)"/>
    <path id="ID0.07445274945348501" d="M 285 357 C 290.333 357 295.667 357 301 357 C 301 357.333 301 357.667 301 358 C 317.189 362.144 329.490 370.176 336 384 C 336 388 336 392 336 396 C 335.667 396 335.333 396 335 396 C 329.242 419.987 306.162 430.590 283 434 C 282.333 434 281.572 435.349 281 434 C 277.539 401.979 278.347 402.309 278 395 C 277.790 386.202 278.098 376.559 277 368 C 276.967 366.454 277 366 277 365 C 279.656 364.990 282.711 365.378 284 364 C 283.054 361.403 282.175 358.127 285 357 Z M 289 423 C 315.044 421.220 343.546 402.597 328 375 C 314.897 369.202 305.310 357.645 287 360 C 285.528 382.884 287.483 401.921 289 423 Z " transform="matrix(1.0257731676101685, 0, 0, 1.0257731676101685, -283.7, -366.2)"/>
  </g>
</svg>
